!!!COM: John Williams
!!!OTL: Lament Basic
!!!GAW: Star Wars: Episode III
!!!ODT: 2005
!!!OCL: Frank Lehman
!!!ENC: Claire Arthur
!!!ENC2: John McNamara
**kern	**harte	**harm	**pedal	**cadence	**text
*clefG2	*	*	*	*	*
*k[]	*k[]	*k[]	*	*	*
*a:	*a:	*a:	*	*	*
*M4/4	*M4/4	*M4/4	*	*	*
*MM72 	*MM72 	*MM72 	* 	* 	* 
=1-	=1-	=1-	=1-	=1-	=1-
2e	A:min	i	Pedal: A	.	.
8dL	.	.	.	.	.
8c	.	.	.	.	.
8d	.	.	.	.	.
8BJ	.	.	.	.	.
=2	=2	=2	=2	=2	=2
2c	A:min(m6)	.	.	.	.
4A	.	.	.	.	.
4a	.	.	.	.	.
=3	=3	=3	=3	=3	=3
2a	B-:maj7(*3,#4)	?-IIA4P5ma7	.	.	.
8b-L	.	.	.	.	.
8a	B-:maj7	.	.	.	.
8b-	.	.	.	.	.
8gJ	.	.	.	.	.
=4	=4	=4	=4	=4	=4
4e	B-:maj7/7	.	.	.	.
4f	.	.	.	.	.
6G	.	-vii7	Pedal: None	.	.
6f	.	.	.	.	.
12fL	G:min7	.	.	.	.
12eJ	.	.	.	.	.
=5	=5	=5	=5	=5	=5
2f	A:min(m6)	i	.	PC	.
8cL	A:min	.	.	.	.
8B	.	.	.	.	.
8c	.	.	.	.	.
8AJ	.	.	.	.	An inner voice takes over the theme in this measure; uppervoice not depicted after beat 1
=6	=6	=6	=6	=6	=6
4B	A:min/m3	ib	.	.	.
4c	.	.	.	.	.
4d	.	.	.	.	.
4e	.	.	.	.	.
=7	=7	=7	=7	=7	=7
4a	A:5/2	ii	.	.	.
4E	.	.	.	.	.
8FL	A:min(m6)	i	.	.	.
8E	.	.	.	.	.
8F	.	.	.	.	.
8DJ	.	.	.	.	.
=8	=8	=8	=8	=8	=8
2c	F/3	VIb	.	.	.
4B	.	.	.	.	.
4A	.	.	.	.	.
=9	=9	=9	=9	=9	=9
2b	E:min	v	;;	.	.
2r	.	.	.	.	.
=	=	=	=	=	=
*-	*-	*-	*-	*-	*-
